X: 27595
T: Monvara Bridge
R: polka
M: 2/4
K: Dmajor
DF F>E|DF FD|CE GA|BA F/G/F/E/|
DF F/G/F/E/|DF FD|C>E GE|ED D:|

